X:1
T:Leaning upon My Father’s Arm
T:Thomas Benjamin Mosley
T:Leaning upon My Father’s Arm
T:Public Domain
T:Public Domain
C:Thomas Benjamin Mosley
Z:Public Domain
%%score ( 1 2 ) ( 3 4 )
L:1/8
M:4/4
K:G
V:1 treble 
V:2 treble 
V:3 bass 
V:4 bass 
V:1
 [DB]2 [DB]>[Dc] [Gd]2 G2 | [GB]2 [FA]2 [FA]4 | [FA]2 [FA]>[GB] [Fc]2 [DF]2 | [DA]2 [DG]2 [DG]4 | %4
w: 1.~Lean- ing up- on my|ther’s arm I|am se- cure from ill|and harm; Here|
w: 2.~Here sweet- est, pur- est|a- bound, Here|per- fect peace and rest|are found; Here|
w: 3.~Lean- ing up- on my|ther’s arm, No|cru- el foe can me|a- larm; He|
w: 4.~O this is per- fect|èd- ness! O|this is grace and won-|drous peace, To|
 [GB]2 [GB]>[Gc] [Gd]2 [GB]2 | [Gc]2 [Gd]2 [Ge]4 | [EA]2 [^GB]>[Ac] [Bd]2 =G2 | %7
w: I a- bide in per-|fect peace, And|know life’s pur- est hap-|
w: filled with Je- sus’ pre-|cious love I|taste the bliss of Heav’n|
w: whis- pers gent- ly, “Thou|art Mine,” And|folds me in His love|
w: lean up- on the Fa-|ther’s arm, And|feel se- cure from ill|
 [GB]2 [FA]2 [DG]4 ||"^Refrain" [DB]4 [Dd]4 | [EG]4 [^DB]4 | E2 [DF]>[DG] [^CA]2 [CB]2 | [DA]6 z2 | %12
w: ness. * *|||||
w: bove. And so|I lean|and find|in Him re- pose; To|near|
w: vine. * *|||||
w: harm. * *|||||
 [DB]4 D2 G2 | [Gc]4 [Ge]4 | [Gd]2 G>[GA] [GB]2 [DA]2 | [DG]6 z2 |] %16
w: ||||
w: Him He won-|grace be-|stows. * * * *||
w: ||||
w: ||||
V:2
 x6 G2 | x8 | x8 | x8 | x8 | x8 | x6 G2 | x8 || x8 | x8 | E2 x6 | x8 | x4 d4 | x8 | x2 G3/2 x9/2 | %15
w: Fa-||||||pi-|||||||||
w: joys||||||a-||||those||drous|||
w: Fa-||||||di-|||||||||
w: bless-||||||and|||||||||
 x8 |] %16
w: |
w: |
w: |
w: |
V:3
 G,2 G,>[G,A,] [G,B,]2 [G,B,]2 | [D,D]2 [D,D]2 [D,D]4 | [D,D]2 [D,D]>[D,D] [D,D]2 [D,A,]2 | %3
w: ~ ~ ~ ~ ~|~ ~ ~|~ ~ ~ ~ ~|
 [G,C]2 [G,B,]2 [G,B,]4 | [G,D]2 [G,D]>[G,A,] [G,B,]2 [=F,D]2 | [E,C]2 [D,B,]2 [C,C]4 | %6
w: ~ ~ ~|~ ~ ~ ~ ~|~ ~ ~|
 [C,E]2 [B,,D]>[A,,C] [G,,B,]2 [E,^C]2 | [D,D]2 [D,C]2 [G,,G,B,]4 || G,2 G,>G, [F,A,]2 [F,A,]2 | %9
w: ~ ~ ~ ~ ~|~ And so|up- on His arm I|
 [E,B,]2 [E,B,]2 (B,2 A,2) | [C,G,]2 [C,A,]>[B,,G,] [A,,G,]2 [A,,G,]2 | [D,F,]6 z2 | %12
w: ~ ~ ~ *|To those so ve- ry|near|
 G,2 G,>G, [F,A,]2 [=F,B,]2 | [E,C]2 [E,C]2 [C,C]4 | [G,B,]2 [E,B,]>[E,^C] [D,D]2 [D,=C]2 | %15
w: to Him, * * *|||
 [G,,B,]6 z2 |] %16
w: |
V:4
 G,2 G,3/2 x9/2 | x8 | x8 | x8 | x8 | x8 | x8 | x8 || G,2 G,>G, x4 | x4 B,,4 | x8 | x8 | %12
w: ~ ~||||||||lean ~ ~|~|||
 G,2 G,>G, x4 | x8 | x8 | x8 |] %16
w: ||||

